theme-map4trip/src/main/assets/themes/mapsforgeV3/map4trip/symbols/tower_observation.svg

<svg enable-background="new 0 0 20 20" height="20" viewBox="0 0 20 20" width="20" xmlns="http://www.w3.org/2000/svg"><path d="m5.2 19.6v-2.2h2.9v-13.2h-1.7v-2.2h2.3v-1.5h2.4v1.5h2.4v2.2h-1.7v13.2h2.5l.6.1v2.1z"/><path d="m10.7.9v1.4h2.4v1.5h-1.7v13.9h2.9.2v.5.9h-.2-8.2-.6v-1.5h2.9v-13.7h-1.7v-1.6h2.4v-1.4zm.8-.7h-.8-1.6-.7v.8.7h-1.7-.7v.8 1.5.8h.8 1v12.2h-2.3-.7v.8 1.5.7h.8.6 8.2.2.8v-.8-.9-.5-.6l-.6-.1h-.2-.1-.1-2.1v-12.5h1 .8v-.7-1.6-.7h-.8-1.6v-.7-.7z" fill="#f4f4f4"/></svg>

<?xml version="1.0" encoding="utf-8"?>
<!-- Generator: Adobe Illustrator 14.0.0, SVG Export Plug-In . SVG Version: 6.00 Build 43363)  -->
<!DOCTYPE svg PUBLIC "-//W3C//DTD SVG 1.0//EN" "http://www.w3.org/TR/2001/REC-SVG-20010904/DTD/svg10.dtd">
<svg version="1.0" id="Vrstva_1" xmlns="http://www.w3.org/2000/svg" xmlns:xlink="http://www.w3.org/1999/xlink" x="0px" y="0px"
	 width="20px" height="20px" viewBox="0 0 20 20" style="enable-background:new 0 0 20 20;" xml:space="preserve">
<polygon points="5.2,19.6 5.2,17.4 8.1,17.4 8.1,4.2 6.4,4.2 6.4,2 8.7,2 8.7,0.5 11.1,0.5 11.1,2 13.5,2 13.5,4.2 11.8,4.2 
	11.8,17.4 14.3,17.4 14.9,17.5 14.9,19.6 "/>
<path style="fill:#F4F4F4;" d="M10.7,0.9v1.4h2.4v1.5h-1.7v13.9h2.9h0.2v0.5v0.9h-0.2H6.1H5.5v-1.5h2.9V3.9H6.7V2.3h2.4V0.9H10.7
	 M11.5,0.2h-0.8H9.1H8.4V1v0.7H6.7H6v0.8V4v0.8h0.8h1V17H5.5H4.8v0.8v1.5V20h0.8h0.6h8.2h0.2h0.8v-0.8v-0.9v-0.5v-0.6l-0.6-0.1h-0.2
	h-0.1h-0.1h-2.1V4.6h1h0.8V3.9V2.3V1.6h-0.8h-1.6V0.9V0.2H11.5z"/>
</svg>
